public/logos/ZL.svg

<?xml version="1.0" encoding="UTF-8"?>
<svg xmlns="http://www.w3.org/2000/svg" xmlns:xlink="http://www.w3.org/1999/xlink" width="159.54pt" height="59pt" viewBox="0 0 159.54 59" version="1.1">
<defs>
<clipPath id="clip1">
  <path d="M 149 41 L 159.539062 41 L 159.539062 55 L 149 55 Z M 149 41 "/>
</clipPath>
</defs>
<g id="surface1">
<path style=" stroke:none;fill-rule:nonzero;fill:rgb(13.676453%,28.514099%,53.330994%);fill-opacity:1;" d="M 7.367188 39.941406 C 6.71875 39.941406 6.257812 40.007812 5.882812 40.144531 L 4.78125 46 C 4.929688 46.023438 5.105469 46.042969 5.3125 46.042969 C 6.722656 46.042969 8.160156 45.664062 9.042969 44.691406 C 9.742188 43.925781 10.023438 42.753906 9.9375 41.785156 C 9.847656 40.75 9.1875 39.941406 7.367188 39.941406 M 11.96875 45.191406 C 11.050781 46.136719 9.550781 46.789062 8.097656 46.988281 L 11.785156 53.933594 L 8.199219 53.933594 L 4.710938 46.609375 L 4.65625 46.609375 L 3.261719 53.933594 L 0 53.933594 L 2.824219 39.105469 C 3.8125 38.632812 5.542969 38.203125 7.539062 38.203125 C 11.15625 38.203125 13.015625 39.648438 13.195312 41.722656 C 13.304688 43.003906 12.9375 44.175781 11.96875 45.191406 "/>
<path style=" stroke:none;fill-rule:nonzero;fill:rgb(13.676453%,28.514099%,53.330994%);fill-opacity:1;" d="M 19.210938 43.296875 C 17.386719 43.296875 16.140625 45.191406 15.765625 47.308594 L 20.957031 46.808594 C 21.074219 46.15625 21.113281 45.59375 21.074219 45.121094 C 20.96875 43.925781 20.328125 43.296875 19.210938 43.296875 M 23.742188 48.144531 L 15.613281 48.90625 C 15.394531 51.117188 16.488281 52.21875 18.574219 52.21875 C 19.957031 52.21875 21.355469 51.742188 21.890625 51.476562 L 22.335938 53.253906 C 21.609375 53.664062 19.886719 54.15625 17.949219 54.15625 C 14.921875 54.15625 12.882812 52.691406 12.644531 49.964844 C 12.480469 48.03125 13.011719 45.730469 14.390625 43.976562 C 15.527344 42.53125 17.238281 41.566406 19.5 41.566406 C 22.175781 41.566406 23.832031 43.027344 24.03125 45.300781 C 24.101562 46.136719 24.003906 47.035156 23.742188 48.144531 "/>
<path style=" stroke:none;fill-rule:nonzero;fill:rgb(13.676453%,28.514099%,53.330994%);fill-opacity:1;" d="M 32.050781 43.253906 C 30.730469 43.253906 29.789062 43.976562 29.144531 45.011719 C 28.238281 46.429688 27.765625 48.726562 27.878906 50.054688 C 27.992188 51.363281 28.726562 52.375 30.285156 52.375 C 30.929688 52.375 31.421875 52.289062 31.757812 52.128906 L 33.417969 43.476562 C 33.117188 43.363281 32.636719 43.253906 32.050781 43.253906 M 34.476562 54.292969 C 33.851562 57.5625 31.449219 59 28.125 59 C 26.421875 59 24.589844 58.550781 23.753906 58.101562 L 24.777344 56.320312 C 25.269531 56.613281 26.480469 57.019531 27.867188 57.019531 C 29.953125 57.019531 31.035156 55.9375 31.363281 54.335938 L 31.464844 53.796875 C 31.011719 53.980469 30.261719 54.132812 29.4375 54.132812 C 26.730469 54.132812 24.976562 52.535156 24.761719 50.011719 C 24.585938 48.007812 25.300781 45.414062 26.859375 43.746094 C 28.152344 42.375 30.019531 41.566406 32.460938 41.566406 C 34.605469 41.566406 36.117188 42.082031 36.738281 42.464844 L 34.476562 54.292969 "/>
<path style=" stroke:none;fill-rule:nonzero;fill:rgb(13.676453%,28.514099%,53.330994%);fill-opacity:1;" d="M 40.988281 39.601562 C 40.167969 39.601562 39.445312 39.0625 39.394531 38.472656 C 39.320312 37.617188 40.203125 36.917969 41.316406 36.917969 C 42.167969 36.917969 42.890625 37.4375 42.945312 38.046875 C 43.019531 38.902344 42.078125 39.601562 40.988281 39.601562 M 39.738281 53.933594 L 36.621094 53.933594 L 38.917969 41.785156 L 42.0625 41.785156 L 39.738281 53.933594 "/>
<path style=" stroke:none;fill-rule:nonzero;fill:rgb(13.676453%,28.514099%,53.330994%);fill-opacity:1;" d="M 49.011719 43.296875 C 47.925781 43.296875 47.15625 43.925781 46.621094 44.894531 C 45.9375 46.15625 45.34375 48.75 45.480469 50.371094 C 45.582031 51.476562 46.089844 52.265625 47.320312 52.265625 C 48.410156 52.265625 49.117188 51.632812 49.628906 50.734375 C 50.3125 49.492188 50.960938 46.769531 50.820312 45.167969 C 50.726562 44.085938 50.21875 43.296875 49.011719 43.296875 M 52.1875 51.742188 C 51.023438 53.253906 49.453125 54.15625 47.191406 54.15625 C 44.28125 54.15625 42.660156 52.375 42.457031 50.054688 C 42.289062 48.09375 42.894531 45.59375 44.136719 43.976562 C 45.296875 42.460938 46.921875 41.566406 49.15625 41.566406 C 52.0625 41.566406 53.660156 43.296875 53.859375 45.59375 C 54.023438 47.535156 53.453125 50.082031 52.1875 51.742188 "/>
<path style=" stroke:none;fill-rule:nonzero;fill:rgb(13.676453%,28.514099%,53.330994%);fill-opacity:1;" d="M 66.234375 45.300781 L 64.601562 53.933594 L 61.460938 53.933594 L 63.113281 45.257812 C 63.152344 45.011719 63.160156 44.785156 63.144531 44.582031 C 63.074219 43.769531 62.449219 43.339844 61.214844 43.339844 C 60.304688 43.339844 59.726562 43.433594 59.207031 43.613281 L 57.253906 53.933594 L 54.109375 53.933594 L 56.285156 42.464844 C 57.335938 42.015625 59.234375 41.566406 61.46875 41.566406 C 64.234375 41.566406 66.125 42.375 66.300781 44.378906 C 66.328125 44.667969 66.269531 45.078125 66.234375 45.300781 "/>
<path style=" stroke:none;fill-rule:nonzero;fill:rgb(13.676453%,28.514099%,53.330994%);fill-opacity:1;" d="M 74.433594 43.253906 C 73.109375 43.253906 72.140625 43.976562 71.5 45.011719 C 70.59375 46.429688 70.164062 48.609375 70.277344 49.945312 C 70.394531 51.25 71.195312 52.332031 72.753906 52.332031 C 73.339844 52.332031 73.832031 52.265625 74.148438 52.132812 L 75.804688 43.476562 C 75.53125 43.363281 75.019531 43.253906 74.433594 43.253906 M 77.066406 53.253906 C 76.136719 53.726562 74.707031 54.15625 72.585938 54.15625 C 69.5 54.15625 67.398438 52.601562 67.164062 49.945312 C 66.992188 47.9375 67.628906 45.457031 69.242188 43.746094 C 70.53125 42.375 72.40625 41.566406 74.84375 41.566406 C 76.992188 41.566406 78.507812 42.082031 79.125 42.464844 L 77.066406 53.253906 "/>
<path style=" stroke:none;fill-rule:nonzero;fill:rgb(13.676453%,28.514099%,53.330994%);fill-opacity:1;" d="M 82.121094 53.933594 L 79.003906 53.933594 L 82.347656 36.242188 L 85.460938 36.242188 L 82.121094 53.933594 "/>
<path style=" stroke:none;fill-rule:nonzero;fill:rgb(94.920349%,41.43219%,9.106445%);fill-opacity:1;" d="M 99.257812 40.410156 L 94.113281 40.410156 L 93.246094 45.011719 L 97.804688 45.011719 L 97.441406 46.945312 L 92.859375 46.945312 L 91.910156 51.949219 L 97.054688 51.949219 L 96.699219 53.933594 L 88.230469 53.933594 L 91.179688 38.429688 L 99.644531 38.429688 L 99.257812 40.410156 "/>
<path style=" stroke:none;fill-rule:nonzero;fill:rgb(94.920349%,41.43219%,9.106445%);fill-opacity:1;" d="M 105.835938 47.46875 L 108.835938 53.933594 L 105.605469 53.933594 L 103.941406 49.671875 L 103.878906 49.671875 L 100.546875 53.933594 L 97.375 53.933594 L 102.714844 47.757812 L 100.082031 41.785156 L 103.167969 41.785156 L 104.625 45.6875 L 104.683594 45.6875 L 107.785156 41.785156 L 110.722656 41.785156 L 105.835938 47.46875 "/>
<path style=" stroke:none;fill-rule:nonzero;fill:rgb(94.920349%,41.43219%,9.106445%);fill-opacity:1;" d="M 115.996094 43.296875 C 115.410156 43.296875 114.945312 43.386719 114.636719 43.519531 L 112.953125 52.242188 C 113.226562 52.332031 113.730469 52.398438 114.320312 52.398438 C 115.640625 52.398438 116.605469 51.675781 117.257812 50.664062 C 118.1875 49.246094 118.613281 47.015625 118.5 45.707031 C 118.382812 44.378906 117.582031 43.296875 115.996094 43.296875 M 119.566406 51.949219 C 118.386719 53.253906 116.699219 54.113281 114.613281 54.113281 C 113.761719 54.113281 113.105469 54 112.65625 53.886719 L 111.726562 58.777344 L 108.609375 58.777344 L 111.691406 42.460938 C 112.617188 41.988281 114.082031 41.566406 116.195312 41.566406 C 119.285156 41.566406 121.390625 43.117188 121.617188 45.777344 C 121.796875 47.828125 121.148438 50.214844 119.566406 51.949219 "/>
<path style=" stroke:none;fill-rule:nonzero;fill:rgb(94.920349%,41.43219%,9.106445%);fill-opacity:1;" d="M 129.75 43.613281 C 128.835938 43.273438 127.726562 43.34375 126.933594 43.65625 L 125 53.933594 L 121.859375 53.933594 L 124.035156 42.464844 C 125.308594 41.878906 127.25 41.566406 129.515625 41.566406 C 129.953125 41.566406 130.398438 41.585938 130.785156 41.628906 L 129.75 43.613281 "/>
<path style=" stroke:none;fill-rule:nonzero;fill:rgb(94.920349%,41.43219%,9.106445%);fill-opacity:1;" d="M 135.925781 43.296875 C 134.101562 43.296875 132.855469 45.191406 132.480469 47.308594 L 137.671875 46.808594 C 137.792969 46.15625 137.828125 45.59375 137.789062 45.121094 C 137.683594 43.925781 137.042969 43.296875 135.925781 43.296875 M 140.460938 48.144531 L 132.324219 48.90625 C 132.105469 51.117188 133.203125 52.21875 135.289062 52.21875 C 136.671875 52.21875 138.066406 51.742188 138.601562 51.476562 L 139.050781 53.253906 C 138.324219 53.664062 136.601562 54.15625 134.660156 54.15625 C 131.632812 54.15625 129.597656 52.691406 129.359375 49.964844 C 129.195312 48.03125 129.726562 45.730469 131.105469 43.976562 C 132.242188 42.53125 133.953125 41.566406 136.214844 41.566406 C 138.890625 41.566406 140.546875 43.027344 140.742188 45.300781 C 140.816406 46.136719 140.714844 47.035156 140.460938 48.144531 "/>
<path style=" stroke:none;fill-rule:nonzero;fill:rgb(94.920349%,41.43219%,9.106445%);fill-opacity:1;" d="M 149.359375 43.996094 C 149.011719 43.769531 148.246094 43.386719 147.128906 43.386719 C 145.898438 43.386719 145.054688 44.195312 145.140625 45.191406 C 145.289062 46.878906 149.105469 47.511719 149.316406 49.964844 C 149.53125 52.421875 147.242188 54.15625 143.949219 54.15625 C 142.363281 54.15625 140.882812 53.683594 140.167969 53.253906 L 141.28125 51.519531 C 141.714844 51.789062 142.691406 52.195312 143.75 52.195312 C 145.128906 52.195312 146.089844 51.386719 145.988281 50.214844 C 145.84375 48.566406 142.207031 47.960938 141.992188 45.503906 C 141.808594 43.363281 143.855469 41.5625 146.765625 41.5625 C 148.589844 41.5625 149.839844 42.078125 150.402344 42.460938 L 149.359375 43.996094 "/>
<g clip-path="url(#clip1)" clip-rule="nonzero">
<path style=" stroke:none;fill-rule:nonzero;fill:rgb(94.920349%,41.43219%,9.106445%);fill-opacity:1;" d="M 158.5 43.996094 C 158.15625 43.769531 157.386719 43.386719 156.269531 43.386719 C 155.035156 43.386719 154.195312 44.195312 154.28125 45.191406 C 154.425781 46.878906 158.246094 47.511719 158.460938 49.964844 C 158.671875 52.421875 156.386719 54.15625 153.089844 54.15625 C 151.503906 54.15625 150.023438 53.683594 149.308594 53.253906 L 150.421875 51.519531 C 150.855469 51.789062 151.835938 52.195312 152.894531 52.195312 C 154.273438 52.195312 155.234375 51.386719 155.132812 50.214844 C 154.988281 48.566406 151.351562 47.960938 151.136719 45.503906 C 150.949219 43.363281 152.996094 41.5625 155.90625 41.5625 C 157.730469 41.5625 158.980469 42.078125 159.542969 42.460938 L 158.5 43.996094 "/>
</g>
<path style=" stroke:none;fill-rule:nonzero;fill:rgb(94.920349%,41.43219%,9.106445%);fill-opacity:1;" d="M 125.484375 24.28125 C 125.496094 25.605469 124.222656 26.691406 122.839844 26.703125 C 121.457031 26.714844 120.328125 25.652344 120.316406 24.328125 C 120.304688 23 121.414062 21.917969 122.800781 21.90625 C 124.183594 21.890625 125.46875 22.957031 125.484375 24.28125 "/>
<path style=" stroke:none;fill-rule:nonzero;fill:rgb(94.920349%,41.43219%,9.106445%);fill-opacity:1;" d="M 115.859375 26.898438 C 115.859375 26.886719 115.859375 26.878906 115.859375 26.875 C 115.851562 26.816406 115.847656 26.761719 115.839844 26.707031 C 115.835938 26.699219 115.835938 26.691406 115.832031 26.683594 C 115.75 26.179688 115.53125 25.746094 115.386719 25.507812 C 111.3125 18.804688 105.09375 13.519531 105.09375 13.519531 C 105.09375 13.519531 104.886719 13.300781 105 13.203125 C 105.105469 13.097656 106.347656 12.261719 106.632812 12.101562 C 106.914062 11.933594 108.578125 10.941406 109.128906 10.667969 C 110.78125 9.839844 112.726562 9.761719 112.644531 8.40625 C 112.605469 7.734375 111.859375 7.222656 111.496094 7.078125 C 108.53125 5.886719 104.367188 8.585938 103.796875 8.914062 C 103.214844 9.253906 101.957031 10.152344 101.816406 10.257812 C 101.671875 10.355469 101.578125 10.4375 101.382812 10.261719 C 100.566406 9.535156 97.253906 7.316406 93.09375 5.113281 C 88.933594 2.914062 83.925781 0.742188 80.257812 0.078125 C 79.292969 -0.0976562 77.925781 -0.0507812 77.441406 1.082031 C 77.109375 1.863281 77.359375 2.859375 78.660156 3.457031 C 79.640625 3.90625 83.703125 4.761719 90.054688 7.992188 C 92.804688 9.394531 97.191406 12.441406 97.191406 12.441406 C 97.46875 12.628906 97.902344 12.957031 97.925781 13.054688 C 97.945312 13.171875 97.402344 13.464844 97.109375 13.738281 C 96.824219 14.007812 94.117188 15.820312 93.492188 16.257812 C 92.792969 16.746094 89.671875 18.816406 89.074219 19.101562 C 88.128906 19.550781 87.1875 20.109375 87.148438 21.207031 C 87.140625 21.480469 87.1875 21.742188 87.265625 21.988281 C 87.273438 22.007812 87.28125 22.023438 87.285156 22.035156 C 87.292969 22.066406 87.300781 22.09375 87.316406 22.117188 C 87.484375 22.542969 87.765625 22.871094 88.046875 23.054688 C 88.394531 23.308594 88.8125 23.464844 89.273438 23.480469 C 89.816406 23.5 90.210938 23.304688 90.726562 23.070312 C 91.621094 22.523438 92.589844 21.910156 93.058594 21.589844 C 93.804688 21.082031 101 15.855469 101 15.855469 C 101 15.855469 101.109375 15.730469 101.3125 15.914062 C 101.519531 16.097656 107.726562 21.828125 110.808594 26.191406 C 111.402344 27.035156 111.679688 27.414062 111.914062 27.773438 C 112.140625 28.121094 112.335938 28.308594 112.632812 28.550781 C 112.921875 28.789062 113.285156 28.949219 113.679688 28.988281 C 113.808594 29.011719 113.945312 29.015625 114.078125 29.003906 C 114.609375 28.949219 114.957031 28.816406 115.363281 28.382812 C 115.792969 27.914062 115.898438 27.386719 115.859375 26.898438 "/>
<path style=" stroke:none;fill-rule:nonzero;fill:rgb(13.676453%,28.514099%,53.330994%);fill-opacity:1;" d="M 68.414062 11.960938 C 68.699219 11.960938 69.777344 11.941406 69.933594 12.421875 C 70.035156 12.746094 69.816406 13.035156 69.589844 13.203125 C 68.789062 13.8125 67.007812 14.28125 65.65625 14.265625 C 65.242188 14.261719 64.785156 14.246094 64.792969 14.15625 C 64.832031 13.417969 66.820312 11.949219 68.414062 11.960938 M 82.835938 21.753906 C 82.417969 21.753906 82.023438 21.886719 81.695312 22.097656 C 80.949219 22.378906 80.082031 22.765625 79.734375 22.859375 C 79.308594 22.96875 71.5 26.210938 66.355469 21.496094 C 64.519531 19.808594 64.449219 18.097656 64.449219 18.097656 C 64.449219 18.097656 64.828125 18.207031 65.878906 18.164062 C 75.765625 17.757812 75.640625 10.578125 72.65625 8.773438 C 70.773438 7.636719 68.9375 7.976562 68.410156 7.984375 C 67.886719 7.988281 66.617188 8.335938 66.617188 8.335938 C 61.121094 9.996094 60.078125 14.601562 59.972656 15.515625 C 59.886719 16.21875 59.707031 16.488281 59.878906 18.328125 C 60.230469 21.9375 63.488281 25.484375 67.511719 27.050781 C 71.527344 28.617188 76.175781 28.359375 80.382812 27.066406 C 81.457031 26.738281 82.238281 26.492188 82.828125 26.199219 C 82.832031 26.199219 82.839844 26.199219 82.84375 26.199219 C 83.113281 26.09375 83.398438 25.964844 83.640625 25.835938 C 84.425781 25.523438 84.980469 24.75 84.976562 23.847656 C 84.960938 22.679688 84.007812 21.742188 82.835938 21.753906 "/>
<path style=" stroke:none;fill-rule:nonzero;fill:rgb(13.676453%,28.514099%,53.330994%);fill-opacity:1;" d="M 41.679688 14.132812 C 41.773438 14.03125 50.804688 4.125 60.929688 3.765625 C 62.0625 3.726562 63.015625 4.339844 63.324219 5.285156 C 63.722656 6.484375 62.949219 7.828125 61.605469 8.269531 C 60.957031 8.480469 60.277344 8.464844 59.683594 8.207031 L 59.652344 8.191406 L 59.621094 8.1875 C 58.953125 8.121094 58.09375 8.328125 57.484375 8.511719 C 49.976562 10.773438 43.664062 16.609375 38.707031 25.851562 C 38.445312 26.34375 38.210938 26.644531 37.757812 27.167969 C 37.378906 27.605469 36.089844 28.570312 35.148438 28.359375 C 34.308594 28.167969 34.160156 27.675781 34.085938 27.1875 C 33.976562 26.503906 34.214844 25.746094 34.515625 24.792969 C 34.714844 24.136719 34.949219 23.390625 35.132812 22.492188 C 35.78125 19.28125 36.066406 16.796875 35.980469 15.105469 C 35.949219 14.414062 35.980469 13.527344 36.566406 12.871094 C 37.152344 12.210938 37.933594 12.136719 38.621094 12.074219 C 39.570312 11.984375 40.035156 12.296875 40.378906 12.527344 C 40.695312 12.742188 40.875 13.058594 40.890625 13.398438 C 40.886719 13.398438 40.875 13.507812 40.875 13.507812 C 40.863281 13.636719 40.847656 13.773438 40.847656 13.90625 C 40.847656 14.128906 40.894531 14.332031 41.070312 14.410156 C 41.328125 14.523438 41.574219 14.25 41.679688 14.132812 "/>
</g>
</svg>

<svg xmlns="http://www.w3.org/2000/svg" width="212.72" height="59pt" viewBox="0 0 159.54 59"><defs><clipPath id="a"><path d="M149 41h10.54v14H149Zm0 0"/></clipPath></defs><path d="M7.367 39.941c-.648 0-1.11.067-1.484.204L4.78 46c.149.023.324.043.532.043 1.41 0 2.847-.379 3.73-1.352.7-.765.98-1.937.895-2.906-.09-1.035-.75-1.844-2.57-1.844m4.6 5.25c-.917.946-2.417 1.598-3.87 1.797l3.687 6.946H8.2l-3.488-7.325h-.055l-1.394 7.325H0l2.824-14.829c.989-.472 2.719-.902 4.715-.902 3.617 0 5.477 1.445 5.656 3.52.11 1.28-.258 2.453-1.226 3.468M19.21 43.297c-1.823 0-3.07 1.894-3.444 4.012l5.191-.5q.175-.979.117-1.688c-.105-1.195-.746-1.824-1.863-1.824m4.531 4.848-8.129.761c-.218 2.211.875 3.313 2.961 3.313 1.383 0 2.781-.477 3.317-.742l.445 1.777c-.727.41-2.45.902-4.387.902-3.027 0-5.066-1.465-5.304-4.191-.165-1.934.367-4.235 1.746-5.988 1.136-1.446 2.847-2.41 5.109-2.41 2.676 0 4.332 1.46 4.531 3.734.07.836-.027 1.734-.289 2.844M32.05 43.254c-1.32 0-2.26.723-2.905 1.758-.907 1.418-1.38 3.715-1.266 5.043.113 1.308.848 2.32 2.406 2.32.645 0 1.137-.086 1.473-.246l1.66-8.652a4 4 0 0 0-1.367-.223m2.426 11.039C33.852 57.563 31.449 59 28.125 59c-1.703 0-3.535-.45-4.371-.898l1.023-1.782c.493.293 1.703.7 3.09.7 2.086 0 3.168-1.083 3.496-2.684l.102-.54c-.453.184-1.203.337-2.027.337-2.708 0-4.461-1.598-4.676-4.121-.176-2.004.539-4.598 2.097-6.266 1.293-1.371 3.16-2.18 5.602-2.18 2.144 0 3.656.516 4.277.899zM40.988 39.602c-.82 0-1.543-.54-1.593-1.13-.075-.855.808-1.554 1.921-1.554.852 0 1.575.52 1.63 1.129.074.855-.868 1.555-1.958 1.555m-1.25 14.332h-3.117l2.297-12.149h3.145zM49.012 43.297c-1.086 0-1.856.629-2.39 1.598-.684 1.261-1.278 3.855-1.142 5.476.102 1.106.61 1.895 1.84 1.895 1.09 0 1.797-.633 2.309-1.532.684-1.242 1.332-3.964 1.191-5.566-.093-1.082-.601-1.871-1.808-1.871m3.175 8.445c-1.164 1.512-2.734 2.414-4.996 2.414-2.91 0-4.53-1.781-4.734-4.101-.168-1.961.438-4.461 1.68-6.078 1.16-1.516 2.785-2.41 5.02-2.41 2.906 0 4.503 1.73 4.702 4.027.164 1.941-.406 4.488-1.672 6.148M66.234 45.3l-1.632 8.634H61.46l1.652-8.676a3 3 0 0 0 .032-.676c-.07-.812-.696-1.242-1.93-1.242-.91 0-1.488.094-2.008.273l-1.953 10.32h-3.145l2.176-11.468c1.05-.45 2.95-.899 5.184-.899 2.765 0 4.656.809 4.832 2.813.027.289-.031.7-.067.922M74.434 43.254c-1.325 0-2.293.723-2.934 1.758-.906 1.418-1.336 3.597-1.223 4.933.118 1.305.918 2.387 2.477 2.387.586 0 1.078-.066 1.394-.2l1.657-8.655c-.274-.114-.785-.223-1.371-.223m2.632 10c-.93.473-2.359.902-4.48.902-3.086 0-5.188-1.554-5.422-4.21-.172-2.008.465-4.489 2.078-6.2 1.29-1.371 3.164-2.18 5.602-2.18 2.148 0 3.664.516 4.281.899zM82.121 53.934h-3.117l3.344-17.692h3.113z" style="stroke:none;fill-rule:nonzero;fill:#234988;fill-opacity:1"/><path d="M99.258 40.41h-5.145l-.867 4.602h4.559l-.364 1.933H92.86l-.949 5.004h5.145l-.356 1.985H88.23l2.95-15.504h8.465zM105.836 47.469l3 6.465h-3.23l-1.665-4.262h-.062l-3.332 4.262h-3.172l5.34-6.176-2.633-5.973h3.086l1.457 3.903h.059l3.101-3.903h2.938zM115.996 43.297c-.586 0-1.05.09-1.36.223l-1.683 8.722c.274.09.777.156 1.367.156 1.32 0 2.285-.722 2.938-1.734.93-1.418 1.355-3.648 1.242-4.957-.117-1.328-.918-2.41-2.504-2.41m3.57 8.652c-1.18 1.305-2.867 2.164-4.953 2.164a8 8 0 0 1-1.957-.226l-.93 4.89h-3.117l3.082-16.316c.926-.473 2.391-.895 4.504-.895 3.09 0 5.196 1.551 5.422 4.211.18 2.051-.469 4.438-2.05 6.172M129.75 43.613c-.914-.34-2.023-.27-2.816.043L125 53.934h-3.14l2.175-11.47c1.274-.585 3.215-.898 5.48-.898.438 0 .883.02 1.27.063zM135.926 43.297c-1.824 0-3.07 1.894-3.446 4.012l5.192-.5c.121-.653.156-1.215.117-1.688-.105-1.195-.746-1.824-1.863-1.824m4.535 4.848-8.137.761c-.219 2.211.88 3.313 2.965 3.313 1.383 0 2.777-.477 3.313-.742l.449 1.777c-.727.41-2.45.902-4.39.902-3.028 0-5.063-1.465-5.302-4.191-.164-1.934.368-4.235 1.746-5.988 1.137-1.446 2.848-2.41 5.11-2.41 2.676 0 4.332 1.46 4.527 3.734.074.836-.027 1.734-.281 2.844M149.36 43.996c-.348-.226-1.114-.61-2.231-.61-1.23 0-2.074.81-1.988 1.805.148 1.688 3.964 2.32 4.175 4.774.215 2.457-2.074 4.191-5.367 4.191-1.586 0-3.066-.472-3.781-.902l1.113-1.734c.434.27 1.41.675 2.469.675 1.379 0 2.34-.808 2.238-1.98-.144-1.649-3.781-2.254-3.996-4.711-.183-2.14 1.863-3.941 4.774-3.941 1.824 0 3.074.515 3.636.898z" style="stroke:none;fill-rule:nonzero;fill:#f26a17;fill-opacity:1"/><g clip-path="url(#a)"><path d="M158.5 43.996c-.344-.226-1.113-.61-2.23-.61-1.235 0-2.075.81-1.989 1.805.145 1.688 3.965 2.32 4.18 4.774.21 2.457-2.074 4.191-5.371 4.191-1.586 0-3.067-.472-3.781-.902l1.113-1.734c.433.27 1.414.675 2.473.675 1.378 0 2.34-.808 2.238-1.98-.145-1.649-3.781-2.254-3.996-4.711-.188-2.14 1.86-3.941 4.77-3.941 1.823 0 3.073.515 3.636.898z" style="stroke:none;fill-rule:nonzero;fill:#f26a17;fill-opacity:1"/></g><path d="M125.484 24.281c.012 1.324-1.261 2.41-2.644 2.422s-2.512-1.05-2.524-2.375c-.011-1.328 1.098-2.41 2.485-2.422 1.383-.015 2.668 1.051 2.683 2.375M115.86 26.898v-.023q-.01-.087-.02-.168c-.004-.008-.004-.016-.008-.023a3.4 3.4 0 0 0-.445-1.176c-4.075-6.703-10.293-11.988-10.293-11.988s-.207-.22-.094-.317c.105-.105 1.348-.941 1.633-1.101.281-.168 1.945-1.16 2.496-1.434 1.652-.828 3.598-.906 3.516-2.262-.04-.672-.786-1.183-1.149-1.328-2.965-1.191-7.129 1.508-7.7 1.836-.581.34-1.839 1.238-1.98 1.344-.144.097-.238.18-.433.004-.817-.727-4.13-2.946-8.29-5.149-4.16-2.199-9.167-4.37-12.835-5.035-.965-.176-2.332-.129-2.817 1.004-.332.781-.082 1.777 1.22 2.375.98.45 5.042 1.305 11.394 4.535 2.75 1.403 7.136 4.45 7.136 4.45.278.187.711.515.735.613.02.117-.524.41-.817.683-.285.27-2.992 2.082-3.617 2.52-.699.488-3.82 2.558-4.418 2.844-.945.449-1.886 1.007-1.926 2.105-.007.273.04.535.118.781q.012.03.02.047a.3.3 0 0 0 .03.082c.168.426.45.754.73.938.349.254.766.41 1.227.425.543.02.938-.175 1.454-.41a68 68 0 0 0 2.332-1.48c.746-.508 7.941-5.735 7.941-5.735s.11-.125.313.06c.207.183 6.414 5.913 9.496 10.276.593.844.87 1.223 1.105 1.582.227.348.422.536.719.778.289.238.652.398 1.047.437.129.024.265.028.398.016.531-.055.879-.188 1.285-.621.43-.469.535-.996.496-1.485" style="stroke:none;fill-rule:nonzero;fill:#f26a17;fill-opacity:1"/><path d="M68.414 11.96c.285 0 1.363-.019 1.52.462.101.324-.118.613-.344.781-.8.61-2.582 1.078-3.934 1.063-.414-.004-.87-.02-.863-.11.039-.738 2.027-2.207 3.621-2.195m14.422 9.793c-.418 0-.813.133-1.14.344-.747.28-1.614.668-1.962.761-.425.11-8.234 3.352-13.379-1.363-1.835-1.687-1.906-3.398-1.906-3.398s.38.109 1.43.066c9.887-.406 9.762-7.586 6.777-9.39-1.883-1.137-3.719-.797-4.246-.79-.523.004-1.793.352-1.793.352-5.496 1.66-6.539 6.266-6.644 7.18-.086.703-.266.972-.094 2.812.351 3.61 3.61 7.156 7.633 8.723 4.015 1.566 8.664 1.308 12.87.015 1.075-.328 1.856-.574 2.446-.867h.016a8 8 0 0 0 .797-.363 2.13 2.13 0 0 0 1.336-1.988 2.12 2.12 0 0 0-2.141-2.094M41.68 14.133c.093-.102 9.125-10.008 19.25-10.367 1.133-.04 2.086.574 2.394 1.52.399 1.198-.375 2.542-1.719 2.984-.648.21-1.328.195-1.921-.063l-.032-.016-.03-.004c-.669-.066-1.528.141-2.138.325-7.507 2.261-13.82 8.097-18.777 17.34-.262.492-.496.793-.95 1.316-.378.437-1.667 1.402-2.609 1.191-.84-.191-.988-.683-1.062-1.172-.11-.683.129-1.44.43-2.394.199-.656.433-1.402.617-2.3.648-3.212.933-5.696.847-7.388-.03-.69 0-1.578.586-2.234.586-.66 1.368-.734 2.055-.797.95-.09 1.414.223 1.758.453.316.215.496.532.512.871-.004 0-.016.11-.016.11-.012.129-.027.265-.027.398 0 .223.047.426.222.504.258.113.504-.16.61-.277" style="stroke:none;fill-rule:nonzero;fill:#234988;fill-opacity:1"/></svg>
